svgs/fdroid.svg

<svg width="192" height="192" viewBox="0 0 192 192" fill="none" xmlns="http://www.w3.org/2000/svg">
<path d="M34 102C34 93.1634 41.1634 86 50 86H142C150.837 86 158 93.1634 158 102V154C158 162.837 150.837 170 142 170H50C41.1634 170 34 162.837 34 154V102Z" stroke="black" stroke-width="12"/>
<path d="M34 54C34 45.1634 41.1634 38 50 38H142C150.837 38 158 45.1634 158 54V70C158 78.8366 150.837 86 142 86H50C41.1634 86 34 78.8366 34 70V54Z" stroke="black" stroke-width="12"/>
<path d="M36 40L22 22" stroke="black" stroke-width="12" stroke-linecap="round"/>
<path d="M156 40L170 22" stroke="black" stroke-width="12" stroke-linecap="round"/>
<circle cx="66" cy="62" r="9.5" fill="black"/>
<circle cx="66" cy="62" r="9.5" stroke="black"/>
<circle cx="66" cy="62" r="9.5" stroke="black" stroke-opacity="0.2"/>
<circle cx="126" cy="62" r="9.5" fill="black"/>
<circle cx="126" cy="62" r="9.5" stroke="black"/>
<circle cx="126" cy="62" r="9.5" stroke="black" stroke-opacity="0.2"/>
<path d="M78.2016 140.931C80.9324 144.69 84.7831 147.488 89.2016 148.923C93.6202 150.359 98.3798 150.359 102.798 148.923C107.217 147.488 111.068 144.69 113.798 140.931C116.529 137.173 118 132.646 118 128C118 123.354 116.529 118.827 113.798 115.069C111.068 111.31 107.217 108.512 102.798 107.077C98.3798 105.641 93.6202 105.641 89.2016 107.077C84.7831 108.512 80.9324 111.31 78.2016 115.069" stroke="black" stroke-width="12" stroke-linecap="round"/>
</svg>

<svg width="192" height="192" fill="none" xmlns="http://www.w3.org/2000/svg"><path d="M34 102c0-8.837 7.163-16 16-16h92c8.837 0 16 7.163 16 16v52c0 8.837-7.163 16-16 16H50c-8.837 0-16-7.163-16-16v-52zM34 54c0-8.837 7.163-16 16-16h92c8.837 0 16 7.163 16 16v16c0 8.837-7.163 16-16 16H50c-8.837 0-16-7.163-16-16V54z" stroke="#000" stroke-width="12"/><path d="M36 40 22 22M156 40l14-18" stroke="#000" stroke-width="12" stroke-linecap="round"/><circle cx="66" cy="62" r="9.5" fill="#000"/><circle cx="66" cy="62" r="9.5" stroke="#000"/><circle cx="66" cy="62" r="9.5" stroke="#000" stroke-opacity=".2"/><circle cx="126" cy="62" r="9.5" fill="#000"/><circle cx="126" cy="62" r="9.5" stroke="#000"/><circle cx="126" cy="62" r="9.5" stroke="#000" stroke-opacity=".2"/><path d="M78.202 140.931a21.994 21.994 0 0 0 24.596 7.992 21.997 21.997 0 0 0 0-41.846 21.994 21.994 0 0 0-24.596 7.992" stroke="#000" stroke-width="12" stroke-linecap="round"/></svg>
